X:36
T:B\'o Mh\'in Na Toitean
T:Johnny Doherty's March
R:march
Z:id:hn-march-36
M:C|
L:1/8
K:Ador
A2e2 e2dB | d2ef gea2 | A2e2 e2dB | g2ed B2AG |
A2e2 e2dB | d2ef gea2 | gedB g2ed | B2A2 A2BG :|
|: A2a2 a2ge | d2ef gea2 | A2a2 a2ge | dged B2AG |
A2a2 a2ge | d2ef gea2 | gedB g2ed | B2A2 A2BG :|
P:variations
|: A2e2 e2dB | d2ef gea2 | A2e2 e2dB | (3efg ed BAGB |
A2e2 e2dB | d2ef gea2 | eged (3efg ed | B2A2 A2BG :|
|: A2a2 a2ge | d2ef gea2 | A2a2 a2ge | dged BAGB |
A2a2 a2ge | d2ef gea2 | eged (3efg ed | B2A2 A2BG :|

